svg/add-certificate.svg

<?xml version="1.0" encoding="UTF-8"?>
<svg xmlns="http://www.w3.org/2000/svg" xmlns:xlink="http://www.w3.org/1999/xlink" width="32" height="32" viewBox="0 0 32 32">
<defs>
<clipPath id="clip-0">
<path clip-rule="nonzero" d="M 5 0.625 L 27 0.625 L 27 31.375 L 5 31.375 Z M 5 0.625 "/>
</clipPath>
<clipPath id="clip-1">
<path clip-rule="nonzero" d="M 0 32 L 0 0 L 32 0 L 32 32 Z M 15.75 3.300781 C 11.105469 3.300781 7.300781 7.105469 7.300781 11.75 C 7.300781 16.394531 11.105469 20.199219 15.75 20.199219 C 20.394531 20.199219 24.199219 16.394531 24.199219 11.75 C 24.199219 7.105469 20.394531 3.300781 15.75 3.300781 "/>
</clipPath>
</defs>
<g clip-path="url(#clip-0)">
<g clip-path="url(#clip-1)">
<path fill-rule="nonzero" fill="rgb(0%, 0%, 0%)" fill-opacity="1" d="M 13.761719 0.640625 C 12.851562 0.648438 12.007812 1.128906 11.539062 1.910156 L 11.367188 2.191406 C 11.128906 2.589844 10.703125 2.835938 10.238281 2.84375 L 9.910156 2.851562 C 8.496094 2.878906 7.355469 4.015625 7.332031 5.429688 L 7.324219 5.757812 C 7.316406 6.222656 7.070312 6.648438 6.671875 6.890625 L 6.390625 7.058594 C 5.179688 7.789062 4.765625 9.34375 5.449219 10.582031 L 5.605469 10.867188 C 5.832031 11.273438 5.832031 11.765625 5.605469 12.171875 L 5.449219 12.457031 C 4.765625 13.695312 5.179688 15.253906 6.390625 15.984375 L 6.671875 16.152344 C 7.070312 16.390625 7.316406 16.816406 7.324219 17.28125 L 7.332031 17.609375 C 7.355469 19.023438 8.496094 20.164062 9.910156 20.1875 L 10.238281 20.195312 C 10.703125 20.203125 11.128906 20.449219 11.367188 20.847656 L 11.539062 21.128906 C 12.265625 22.339844 13.824219 22.757812 15.058594 22.074219 L 15.347656 21.914062 C 15.753906 21.6875 16.246094 21.6875 16.652344 21.914062 L 16.941406 22.070312 C 18.175781 22.753906 19.730469 22.339844 20.460938 21.128906 L 20.632812 20.847656 C 20.871094 20.449219 21.296875 20.203125 21.761719 20.195312 L 22.089844 20.191406 C 23.503906 20.164062 24.640625 19.023438 24.667969 17.609375 L 24.675781 17.28125 C 24.683594 16.816406 24.929688 16.390625 25.328125 16.152344 L 25.609375 15.984375 C 26.820312 15.253906 27.234375 13.699219 26.550781 12.460938 L 26.394531 12.171875 C 26.167969 11.765625 26.167969 11.273438 26.394531 10.867188 L 26.550781 10.582031 C 27.234375 9.34375 26.820312 7.789062 25.609375 7.058594 L 25.328125 6.890625 C 24.929688 6.652344 24.683594 6.222656 24.675781 5.757812 L 24.667969 5.429688 C 24.640625 4.015625 23.503906 2.878906 22.089844 2.851562 L 21.761719 2.84375 C 21.296875 2.835938 20.871094 2.589844 20.632812 2.191406 L 20.460938 1.914062 C 19.734375 0.703125 18.175781 0.285156 16.941406 0.96875 L 16.652344 1.125 C 16.246094 1.351562 15.753906 1.351562 15.347656 1.125 L 15.058594 0.96875 C 14.660156 0.75 14.214844 0.636719 13.761719 0.640625 M 23.433594 21.210938 C 23.011719 21.371094 22.566406 21.460938 22.117188 21.46875 L 21.789062 21.476562 C 21.765625 21.476562 21.742188 21.492188 21.726562 21.511719 L 21.554688 21.792969 C 20.925781 22.839844 19.839844 23.53125 18.625 23.65625 L 18.441406 24.074219 L 16.71875 28.015625 L 18.011719 30.976562 C 18.101562 31.179688 18.292969 31.324219 18.515625 31.351562 C 18.738281 31.382812 18.957031 31.292969 19.097656 31.121094 L 21.46875 28.160156 L 25.640625 28.160156 C 25.863281 28.160156 26.066406 28.046875 26.183594 27.863281 C 26.300781 27.679688 26.316406 27.445312 26.222656 27.25 Z M 8.601562 21.222656 L 5.820312 27.25 C 5.726562 27.449219 5.742188 27.679688 5.859375 27.863281 C 5.976562 28.046875 6.179688 28.160156 6.398438 28.160156 L 10.574219 28.160156 L 12.941406 31.121094 C 13.078125 31.296875 13.300781 31.386719 13.523438 31.355469 C 13.746094 31.324219 13.9375 31.183594 14.027344 30.976562 L 17.269531 23.5625 C 16.941406 23.480469 16.621094 23.355469 16.324219 23.195312 L 16.035156 23.039062 C 16.023438 23.03125 16.011719 23.027344 16 23.027344 C 15.988281 23.027344 15.976562 23.03125 15.964844 23.039062 L 15.675781 23.195312 C 15.097656 23.511719 14.449219 23.679688 13.789062 23.683594 C 12.417969 23.6875 11.148438 22.96875 10.445312 21.792969 L 10.273438 21.511719 C 10.261719 21.488281 10.238281 21.476562 10.210938 21.476562 L 9.882812 21.46875 C 9.445312 21.460938 9.011719 21.375 8.601562 21.222656 "/>
</g>
</g>
<path fill-rule="nonzero" fill="rgb(0%, 0%, 0%)" fill-opacity="1" d="M 15.75 4.710938 C 11.878906 4.710938 8.710938 7.878906 8.710938 11.75 C 8.710938 15.621094 11.878906 18.789062 15.75 18.789062 C 19.621094 18.789062 22.789062 15.621094 22.789062 11.75 C 22.789062 7.878906 19.621094 4.710938 15.75 4.710938 M 19.199219 12.453125 L 16.453125 12.453125 L 16.453125 15.199219 C 16.453125 15.621094 16.171875 15.902344 15.75 15.902344 C 15.328125 15.902344 15.046875 15.621094 15.046875 15.199219 L 15.046875 12.453125 L 12.300781 12.453125 C 11.878906 12.453125 11.597656 12.171875 11.597656 11.75 C 11.597656 11.328125 11.878906 11.046875 12.300781 11.046875 L 15.046875 11.046875 L 15.046875 8.230469 C 15.046875 7.808594 15.328125 7.527344 15.75 7.527344 C 16.171875 7.527344 16.453125 7.808594 16.453125 8.230469 L 16.453125 11.046875 L 19.199219 11.046875 C 19.621094 11.046875 19.902344 11.328125 19.902344 11.75 C 19.902344 12.171875 19.621094 12.453125 19.199219 12.453125 "/>
</svg>

<svg role="img" viewBox="0 0 32 32" height="32" width="32" xmlns="http://www.w3.org/2000/svg"><defs><clipPath id="318__316__395__393__124__122__410__408__394__392__114__112__308__306__194__192__282__280__124__122__add-certificate_svg__svg/add-certificate.svg565__svg/add-certificate.svg561__clip-0"><path d="M5 .625h22v30.75H5Zm0 0"/></clipPath><clipPath id="319__317__396__394__125__123__411__409__395__393__115__113__309__307__195__193__283__281__125__123__add-certificate_svg__svg/add-certificate.svg567__svg/add-certificate.svg563__clip-1"><path d="M0 32V0h32v32ZM15.75 3.3c-4.645 0-8.45 3.805-8.45 8.45s3.805 8.45 8.45 8.45 8.45-3.805 8.45-8.45-3.805-8.45-8.45-8.45"/></clipPath></defs><g clip-path="url(#318__316__395__393__124__122__410__408__394__392__114__112__308__306__194__192__282__280__124__122__add-certificate_svg__svg/add-certificate.svg565__svg/add-certificate.svg561__clip-0)"><g clip-path="url(#319__317__396__394__125__123__411__409__395__393__115__113__309__307__195__193__283__281__125__123__add-certificate_svg__svg/add-certificate.svg567__svg/add-certificate.svg563__clip-1)"><path d="M13.762.64a2.62 2.62 0 0 0-2.223 1.27l-.172.281a1.34 1.34 0 0 1-1.129.653l-.328.008A2.625 2.625 0 0 0 7.332 5.43l-.008.328c-.008.465-.254.89-.652 1.133l-.281.168a2.628 2.628 0 0 0-.942 3.523l.156.285c.227.406.227.899 0 1.305l-.156.285a2.633 2.633 0 0 0 .942 3.527l.28.168c.4.239.645.664.653 1.13l.008.327a2.622 2.622 0 0 0 2.578 2.578l.328.008c.465.008.89.254 1.13.653l.171.28a2.625 2.625 0 0 0 3.52.946l.289-.16a1.337 1.337 0 0 1 1.304 0l.29.156a2.624 2.624 0 0 0 3.519-.941l.172-.281a1.34 1.34 0 0 1 1.129-.653l.328-.004a2.63 2.63 0 0 0 2.578-2.582l.008-.328a1.34 1.34 0 0 1 .652-1.129l.281-.168a2.628 2.628 0 0 0 .942-3.523l-.156-.29a1.337 1.337 0 0 1 0-1.304l.156-.285a2.628 2.628 0 0 0-.942-3.523l-.28-.168a1.346 1.346 0 0 1-.653-1.133l-.008-.328a2.627 2.627 0 0 0-2.578-2.578l-.328-.008a1.34 1.34 0 0 1-1.13-.653l-.171-.277A2.625 2.625 0 0 0 16.94.97l-.289.156a1.337 1.337 0 0 1-1.304 0l-.29-.156a2.645 2.645 0 0 0-1.294-.33m9.672 20.57c-.422.16-.868.25-1.317.258l-.328.008c-.023 0-.047.015-.062.035l-.172.281a3.883 3.883 0 0 1-2.93 1.863l-.184.418-1.722 3.942 1.293 2.96c.09.204.281.348.504.376a.637.637 0 0 0 .582-.23l2.37-2.962h4.173a.648.648 0 0 0 .543-.297.635.635 0 0 0 .039-.613Zm-14.832.012L5.82 27.25a.641.641 0 0 0 .578.91h4.176l2.367 2.961c.137.176.36.266.582.234a.643.643 0 0 0 .504-.378l3.243-7.414a4.09 4.09 0 0 1-.946-.368l-.289-.156a.063.063 0 0 0-.035-.012.063.063 0 0 0-.035.012l-.29.156a3.98 3.98 0 0 1-1.886.489 3.882 3.882 0 0 1-3.344-1.891l-.172-.281c-.011-.024-.035-.035-.062-.035l-.328-.008a3.885 3.885 0 0 1-1.281-.246"/></g></g><path d="M15.75 4.71c-3.871 0-7.04 3.169-7.04 7.04s3.169 7.04 7.04 7.04 7.04-3.169 7.04-7.04-3.169-7.04-7.04-7.04m3.45 7.743h-2.747V15.2c0 .422-.281.703-.703.703-.422 0-.703-.28-.703-.703v-2.746H12.3c-.422 0-.703-.281-.703-.703 0-.422.28-.703.703-.703h2.746V8.23c0-.421.281-.703.703-.703.422 0 .703.282.703.703v2.817H19.2c.422 0 .703.281.703.703 0 .422-.28.703-.703.703"/></svg>
